X:680
T:Reel 680
M:4/4
K:Gmaj
L:1/8
B>G (3GGG dcBG|D>G (3GFG dBcB|a>A (3AAA fAeA|cdef gedc| (3BcB AG BGBd|d>g (3gfg bgag|fdcd AGFA|BcAd G2G|||dggf gabg|dBGB dBgB|Aaa^g aecB|Aaa^g aeAc|BcBA GAge|dBgB bgfg|a^gab c'aag|fdcA GABG|
